svgs/geph.svg

<svg width="192" height="192" viewBox="0 0 192 192" fill="none" xmlns="http://www.w3.org/2000/svg">
<path d="M148.326 43.6741C119.427 14.7753 72.5729 14.7753 43.6741 43.6741C14.7753 72.5729 14.7753 119.427 43.6741 148.326C72.5729 177.225 119.427 177.225 148.326 148.326C177.225 119.427 177.225 72.5729 148.326 43.6741Z" stroke="black" stroke-width="12" stroke-linecap="round" stroke-linejoin="round"/>
<path d="M134.891 38.1091C113.412 16.6303 78.588 16.6303 57.1091 38.1091C35.6303 59.588 35.6303 94.412 57.1091 115.891C78.588 137.37 113.412 137.37 134.891 115.891C156.37 94.412 156.37 59.588 134.891 38.1091Z" stroke="black" stroke-width="10" stroke-linecap="round" stroke-linejoin="round"/>
<path d="M121.456 32.5442C107.397 18.4853 84.603 18.4853 70.5442 32.5442C56.4853 46.603 56.4853 69.397 70.5442 83.4558C84.603 97.5147 107.397 97.5147 121.456 83.4558C135.515 69.397 135.515 46.603 121.456 32.5442Z" stroke="black" stroke-width="8" stroke-linecap="round" stroke-linejoin="round"/>
</svg>

<svg width="192" height="192" viewBox="0 0 192 192" fill="none" xmlns="http://www.w3.org/2000/svg"><path d="M148.326 43.674c-28.899-28.899-75.753-28.899-104.652 0s-28.899 75.753 0 104.652 75.753 28.899 104.652 0 28.899-75.753 0-104.652Z" stroke="#000" stroke-width="12" stroke-linecap="round" stroke-linejoin="round"/><path d="M134.891 38.11c-21.479-21.48-56.303-21.48-77.782 0-21.479 21.478-21.479 56.302 0 77.781 21.479 21.479 56.303 21.479 77.782 0s21.479-56.303 0-77.782Z" stroke="#000" stroke-width="10" stroke-linecap="round" stroke-linejoin="round"/><path d="M121.456 32.544c-14.059-14.059-36.853-14.059-50.912 0-14.059 14.059-14.059 36.853 0 50.912 14.059 14.059 36.853 14.059 50.912 0 14.059-14.059 14.059-36.853 0-50.912Z" stroke="#000" stroke-width="8" stroke-linecap="round" stroke-linejoin="round"/></svg>
